X:19129
T:Xota (MQ 071)
T:Jota (MQ 071)
R:Xota
C:Tradicional
S:Msica Tradicional Asturiana, (C) Tello & Tito. Asturies, 2001.
S:http://pagina.de/MusTradAst <telloytito@asturies.org>
N:Tambin se suele tocar por la misma zona que la anterior.
N:La recog del gaitero del Centro Asturiano de Madrid Graciano Lafuente.
A:Asturies
Z:Manolo Quirs 071
M:3/8
L:1/8
Q:1/4=84
K:C
|: E2 E|CDE|F/G/F/E/ F|D2 D|B,CD|E/F/E/D/ E|C2 C|
E2 E|CDE|F/G/F/E/ F|D2 D|B,CD|E/F/E/D/ C- :|C E/C/E/C/|
E/F/E/D/ C-|C E/C/E/C/|E/F/E/D/ C-|CEC|
D/E/D/C/ B,-|B,DB,|D D/E/ F|F G/F/E/D/|
E/F/E/D/ C-|C E/C/E/C/|E/F/E/D/ C-|CEC|
D/E/D/C/ B,-|B,DB,|D D/E/ F|F G/F/E/D/|
E/F/E/D/ C-|C C/D/E/F/|G/A/G/F/ G|G G/A/B/c/|
dcB|AGF|E/F/E/D/ C-|CGG|GE/G/E/G/|
|: c/G/E/G/E/G/|c/G/E/G/E/G/ :|
F D/F/D/F/|A/F/D/F/D/F/|G/F/D/F/D/F/|E/F/G/c/e/d/|
cBA|G2 A/G/|FED|C/B,/ C2-|C3|
